X:5015
T:Eating The Altar Rails
M:4/4
R:Reel
L:1/8
C:Aidan Crossey
K:D
|:de|fd(3dcd Bg(3gfg|(3gfe (3fed (3edc (3dcB|Af(3fed Bg(3gfg|(3agf (3gfe (3ABc de|
fd(3dcd Bg(3gfg|(3gfe (3fed (3edc (3dcB|Af(3fed Bg(3gfg|(3agf (3gfe (3ABc:||
|:dA|FD(3DCD BG(3GFG|cA(3A^GA dAFA|BABf gfed|(3edc (3BcB AFGE|
FD(3DCD BG(3GFG|cA(3A^GA dAFA|BABf gfed|(3cdc (3ABc d2:||
